svgs/sharp-duotone-light/star-shooting.svg

<svg xmlns="http://www.w3.org/2000/svg" viewBox="0 0 512 512"><!--! Font Awesome Pro 7.1.0 by @fontawesome - https://fontawesome.com License - https://fontawesome.com/license (Commercial License) Copyright 2025 Fonticons, Inc. --><path opacity=".4" fill="currentColor" d="M68.8 306.9c39.9 38.9 60.7 59.2 62.4 60.8-.4 2.3-5.3 30.9-14.7 85.8 49.3-25.9 75-39.4 77.1-40.5 2 1.1 27.7 14.6 77.1 40.5-9.4-54.9-14.3-83.5-14.7-85.8 1.7-1.6 22.4-21.9 62.4-60.8-55.2-8-83.9-12.2-86.2-12.5-1-2.1-13.9-28.1-38.5-78.1-24.7 50-37.5 76-38.5 78.1-2.3 .3-31 4.5-86.2 12.5z"/><path fill="currentColor" d="M307.3 35.3l-56 56-11.3 11.3-22.6-22.6 11.3-11.3 56-56 11.3-11.3 22.6 22.6-11.3 11.3zm192 0l-152 152-11.3 11.3-22.6-22.6 11.3-11.3 152-152 11.3-11.3 22.6 22.6-11.3 11.3zm0 192l-56 56-11.3 11.3-22.6-22.6 11.3-11.3 56-56 11.3-11.3 22.6 22.6-11.3 11.3zm-288-47.2l41.9 85c71.5 10.4 116.1 16.9 133.7 19.4-12.7 12.4-45 43.9-96.7 94.3 12.2 71.2 19.8 115.6 22.8 133.1-15.8-8.3-55.6-29.2-119.6-62.9-64 33.6-103.8 54.6-119.6 62.9 3-17.5 10.6-61.9 22.8-133.1-51.7-50.4-84-81.9-96.7-94.3 17.6-2.6 62.2-9 133.7-19.4 32-64.8 51.9-105.2 59.8-121.1l17.8 36.2zm37.3 116.7L232 294.4c-1-2.1-13.9-28.1-38.5-78.1-24.7 50-37.5 76-38.5 78.1-2.3 .3-31 4.5-86.2 12.5 39.9 38.9 60.7 59.2 62.4 60.8-.4 2.3-5.3 30.9-14.7 85.8 49.3-25.9 75-39.4 77.1-40.5 2 1.1 27.7 14.6 77.1 40.5-9.4-54.9-14.3-83.5-14.7-85.8 1.7-1.6 22.4-21.9 62.4-60.8l-69.5-10.1z"/></svg>

<svg xmlns="http://www.w3.org/2000/svg" viewBox="0 0 512 512"><!--! Font Awesome Pro 6.7.2 by @fontawesome - https://fontawesome.com License - https://fontawesome.com/license (Commercial License) Copyright 2024 Fonticons, Inc. --><defs><style>.fa-secondary{opacity:.4}</style></defs><path class="fa-secondary" d="M68.8 306.9l50.3 49 12 11.7-2.8 16.6-11.9 69.2 62.2-32.7 14.9-7.8 14.9 7.8 62.2 32.7-11.9-69.2-2.8-16.6 12-11.7 50.3-49-69.5-10.1L232 294.4l-7.4-15.1-31.1-63-31.1 63-7.4 15.1-16.6 2.4L68.8 306.9z"/><path class="fa-primary" d="M307.3 35.3l-56 56L240 102.6 217.4 80l11.3-11.3 56-56L296 1.4 318.6 24 307.3 35.3zm192 0l-152 152L336 198.6 313.4 176l11.3-11.3 152-152L488 1.4 510.6 24 499.3 35.3zm0 192l-56 56L432 294.6 409.4 272l11.3-11.3 56-56L488 193.4 510.6 216l-11.3 11.3zm-288-47.2l41.9 85L347 278.8l39.9 5.8-28.9 28.1-67.9 66.2 16 93.4L313 512l-35.7-18.8-83.9-44.1-83.9 44.1L73.9 512l6.8-39.7 16-93.4L28.9 312.7 0 284.6l39.9-5.8 93.8-13.6 41.9-85L193.5 144l17.8 36.2zm37.3 116.7L232 294.4l-7.4-15.1-31.1-63-31.1 63-7.4 15.1-16.6 2.4L68.8 306.9l50.3 49 12 11.7-2.8 16.6-11.9 69.2 62.2-32.7 14.9-7.8 14.9 7.8 62.2 32.7-11.9-69.2-2.8-16.6 12-11.7 50.3-49-69.5-10.1z"/></svg>
